X:8
T:The Crooked Road to Dublin
R:reel
O:Ireland
M:C
L:1/8
K:G
"G" G2 ~G2 "D" FGAF | "G" G2 FG   "F" AdcA | "G" G2 AG  "D" FGAg |1 "C" fdcA "D" dBcA :|2 "C" fdcA "D" d2 Bc ||
"G" dg ~g2 "D" fgaf | "G" dg ~g2  "D" agfe | "G" dg ~g2 "D" fgag | "C" edcA "D" d2 Bc |
"G" dg ~g2 "D" fgaf | "G" dg ~g2 "D" a2 ga | "G" bgaf       fbag | "D" fdcA      dBcA |]
